X: 28951
T: Nancy Cooper
R: waltz
M: 3/4
K: Adorian
Bd|e2 A2 Bd|e2 edB^c|d=cBA G2|dcde d2|
gagedg|e2 fgab|e2 gedB|A2 A4||
E2 AEAB|A4 GF|G2 (3DEF GF|GFGAAB|
E2 AEAB|A2 E2 Bc|dcBA G2|e4 (3def|
g2 g2 ga|gfed fg|a2 a2 ab|ag e4|
edef g2|fefg a2|f2 edBA|G4 ED|
E2 A2 A2|AGAB A2|B2 d4|efga g2|
B2 dB A2|GAGF EB/d/|edBAGB|A2 A2||

